dist/img/mg1.svg

<svg width="184" height="109" viewBox="0 0 184 109" fill="none" xmlns="http://www.w3.org/2000/svg">
<g filter="url(#filter0_d_955_40059)">
<path fill-rule="evenodd" clip-rule="evenodd" d="M27.4219 88.5903H156.645V1H27.4219V88.5903Z" fill="#191551"/>
<path d="M91.9097 29.7085C98.1762 28.933 102.626 23.24 101.848 16.9929C101.07 10.7458 95.359 6.31022 89.0925 7.08576C82.8261 7.86129 78.3767 13.5543 79.1547 19.8014C79.9326 26.0485 85.6432 30.484 91.9097 29.7085Z" fill="#03E59F"/>
<path d="M90.4649 17.482C92.0248 17.482 93.2892 16.2214 93.2892 14.6664C93.2892 13.1114 92.0248 11.8508 90.4649 11.8508C88.9051 11.8508 87.6406 13.1114 87.6406 14.6664C87.6406 16.2214 88.9051 17.482 90.4649 17.482Z" fill="white"/>
<path d="M97.0304 22.1293C96.4519 19.0423 93.7297 16.7356 90.463 16.7356C87.2304 16.7356 84.5422 19.0084 83.9297 22.0275C85.563 24.8092 92.1304 28.2014 97.0304 22.1293Z" fill="white"/>
<path d="M121.069 78H59.9306C57.2187 78 55 76.4812 55 74.6248V38.3752C55 36.5188 57.2187 35 59.9306 35H121.069C123.781 35 126 36.5188 126 38.3752V74.6586C126 76.5149 123.781 78 121.069 78Z" fill="white"/>
<path fill-rule="evenodd" clip-rule="evenodd" d="M67.6207 41.3267C69.1416 41.3304 70.4075 42.1102 70.9853 43.3284C71.1412 43.6573 71.2428 44.0106 71.2869 44.3776C71.32 44.6532 71.3252 44.8351 71.306 45.092C71.213 46.3378 70.5104 47.4272 69.4047 48.2019C69.3977 48.2069 69.3984 48.2164 69.4062 48.2204C69.4381 48.2368 69.4698 48.2531 69.5014 48.2697C70.2788 48.6762 70.9083 49.1005 71.3918 49.5836C71.4252 49.617 71.4577 49.6506 71.4896 49.6844C71.4948 49.69 71.5044 49.6899 71.5095 49.6844C71.5409 49.6503 71.5732 49.6164 71.6062 49.5828C72.0846 49.0957 72.7096 48.6664 73.4826 48.2536C73.7698 48.1002 74.0658 47.955 74.4048 47.7985C74.4564 47.7746 74.5186 47.8072 74.519 47.8581L74.5273 49.4394C74.5275 49.4677 74.5075 49.4931 74.4772 49.5031C73.2854 49.895 72.436 50.89 72.3911 51.603C72.3889 51.6387 72.3548 51.6666 72.3138 51.6668L70.7171 51.6732C70.6701 51.6734 70.6308 51.6418 70.6277 51.6009C70.5743 50.9078 69.8829 50.2326 68.6096 49.5667C68.3582 49.4353 68.0944 49.3084 67.7882 49.17C67.7861 49.169 67.7839 49.168 67.7818 49.167C67.3145 48.9432 66.6195 48.7065 65.7383 48.1148C64.7063 47.3562 64.0482 46.3127 63.9467 45.1218C63.9249 44.865 63.928 44.6831 63.9581 44.4073C63.9983 44.0399 64.0963 43.6857 64.2487 43.3556C64.8134 42.1327 66.071 41.3429 67.5917 41.3269L67.599 41.3267L67.6207 41.3267ZM65.2704 48.9373C65.6353 49.1909 66.0922 49.4285 66.6413 49.6504C66.7232 49.6834 66.7305 49.7761 66.6545 49.8175C65.5836 50.4 65.0031 50.9799 64.9548 51.5773C64.9508 51.6279 64.8991 51.6672 64.8369 51.6675L63.2953 51.6732C63.2282 51.6735 63.1738 51.6287 63.1758 51.5741C63.2013 50.8803 63.5478 50.2465 64.1491 49.6754C64.4253 49.4132 64.749 49.1685 65.1208 48.9344C65.1651 48.9063 65.2277 48.9076 65.2704 48.9373ZM67.6143 42.839C66.8095 42.847 66.1665 43.2509 65.8572 43.9206C65.7676 44.1148 65.709 44.3269 65.6845 44.5508C65.6634 44.744 65.6617 44.8406 65.6761 45.0097C65.7628 46.0273 66.489 46.893 67.6299 47.4059C67.6308 47.4061 67.6317 47.4066 67.6326 47.407C67.6364 47.4086 67.6408 47.4087 67.6446 47.407C67.6455 47.4065 67.6464 47.4061 67.6473 47.4057C68.7827 46.8838 69.4996 46.0123 69.5755 44.994C69.5882 44.8247 69.5855 44.728 69.5622 44.5351C69.5354 44.3115 69.4745 44.0998 69.3827 43.9063C69.0663 43.2392 68.4192 42.8404 67.6143 42.839Z" fill="#005FF9"/>
<path d="M79.3623 48.5708C79.3623 48.6271 79.3414 48.6771 79.3005 48.7174C79.258 48.7592 79.2007 48.7802 79.1333 48.7802H78.561C78.4984 48.7802 78.443 48.7594 78.3989 48.7191C78.3548 48.6787 78.332 48.6281 78.332 48.5708V44.6089C78.332 44.5489 78.3526 44.4968 78.3938 44.4562C78.4363 44.4144 78.4937 44.3934 78.561 44.3934H79.1C79.2102 44.3934 79.2989 44.4448 79.3606 44.5423L80.5839 46.6175L81.8081 44.5406C81.8688 44.4448 81.9576 44.3934 82.0678 44.3934H82.6001C82.6667 44.3934 82.7244 44.4139 82.7689 44.4546C82.8133 44.4952 82.8357 44.5479 82.8357 44.6089V48.5708C82.8357 48.6324 82.8128 48.6848 82.767 48.7237C82.7226 48.7614 82.6657 48.7802 82.6001 48.7802H82.0278C81.9652 48.7802 81.9098 48.7594 81.8657 48.7191C81.8216 48.6787 81.7988 48.6281 81.7988 48.5708V46.2103L81.0052 47.5889C80.945 47.6989 80.8484 47.7578 80.7236 47.7578H80.4442C80.3249 47.7578 80.2277 47.7003 80.1566 47.5901L79.3623 46.2103V48.5708ZM85.5567 48.8411C84.9372 48.8411 84.4524 48.6961 84.1058 48.4044C83.7574 48.1112 83.5843 47.6703 83.5843 47.0858V44.6089C83.5843 44.5489 83.6049 44.4968 83.6461 44.4562C83.6886 44.4144 83.746 44.3934 83.8133 44.3934H84.4255C84.4922 44.3934 84.5498 44.4139 84.5943 44.4546C84.6387 44.4952 84.6612 44.5479 84.6612 44.6089V47.0858C84.6612 47.3915 84.739 47.6175 84.892 47.7667C85.0443 47.9153 85.262 47.9901 85.5501 47.9901C85.8381 47.9901 86.0558 47.9153 86.2082 47.7667C86.3611 47.6175 86.4389 47.3915 86.4389 47.0858V44.6089C86.4389 44.5479 86.4614 44.4952 86.5058 44.4546C86.5503 44.4139 86.6079 44.3934 86.6746 44.3934H87.2868C87.3541 44.3934 87.4115 44.4144 87.454 44.4562C87.4952 44.4968 87.5158 44.5489 87.5158 44.6089V47.0858C87.5158 47.6702 87.344 48.1111 86.9978 48.4043C86.6534 48.696 86.1719 48.8411 85.5567 48.8411ZM91.3879 47.9231C91.4546 47.9231 91.5122 47.9437 91.5567 47.9843C91.6008 48.0246 91.6236 48.0752 91.6236 48.1326V48.5708C91.6236 48.6281 91.6008 48.6787 91.5567 48.7191C91.5122 48.7597 91.4546 48.7802 91.3879 48.7802H88.4934C88.4307 48.7802 88.3753 48.7594 88.3313 48.7191C88.2872 48.6787 88.2644 48.6281 88.2644 48.5708V44.6028C88.2644 44.5412 88.2873 44.4888 88.3331 44.4499C88.3771 44.4125 88.4317 44.3934 88.4934 44.3934H89.1189C89.1852 44.3934 89.2418 44.4126 89.2843 44.4515C89.3269 44.4904 89.3479 44.5421 89.3479 44.6028V47.9231H91.3879ZM93.3758 48.5708C93.3758 48.6271 93.355 48.6771 93.3141 48.7174C93.2716 48.7592 93.2142 48.7802 93.1468 48.7802H92.5214C92.4586 48.7802 92.4033 48.7594 92.3592 48.7191C92.3151 48.6787 92.2923 48.6281 92.2923 48.5708V45.2809H91.1306C91.0679 45.2809 91.0126 45.26 90.9685 45.2197C90.924 45.1791 90.9016 45.1263 90.9016 45.0653V44.6089C90.9016 44.5489 90.9222 44.4968 90.9634 44.4562C91.0059 44.4144 91.0633 44.3934 91.1306 44.3934H94.5309C94.5975 44.3934 94.6552 44.4139 94.6997 44.4546C94.7441 44.4952 94.7665 44.5479 94.7665 44.6089V45.0653C94.7665 45.1263 94.7441 45.1791 94.6997 45.2197C94.6552 45.2604 94.5975 45.2809 94.5309 45.2809H93.3758V48.5708ZM95.6953 48.7802C95.6327 48.7802 95.5773 48.7594 95.5332 48.7191C95.4891 48.6787 95.4663 48.6281 95.4663 48.5708V44.6028C95.4663 44.5412 95.4893 44.4888 95.5351 44.4499C95.5791 44.4125 95.6337 44.3934 95.6953 44.3934H96.3341C96.4005 44.3934 96.457 44.4126 96.4996 44.4515C96.5421 44.4904 96.5632 44.5421 96.5632 44.6028V48.5708C96.5632 48.6271 96.5423 48.6771 96.5014 48.7174C96.4589 48.7592 96.4015 48.7802 96.3341 48.7802H95.6953ZM100.475 47.9231C100.542 47.9231 100.599 47.9437 100.644 47.9843C100.688 48.0246 100.711 48.0752 100.711 48.1326V48.5708C100.711 48.6281 100.688 48.6787 100.644 48.7191C100.599 48.7597 100.542 48.7802 100.475 48.7802H97.5807C97.518 48.7802 97.4626 48.7594 97.4185 48.7191C97.3745 48.6787 97.3517 48.6281 97.3517 48.5708V44.6028C97.3517 44.5412 97.3746 44.4888 97.4204 44.4499C97.4644 44.4125 97.519 44.3934 97.5807 44.3934H98.206C98.2725 44.3934 98.329 44.4126 98.3715 44.4515C98.4143 44.4904 98.4352 44.5421 98.4352 44.6028V47.9231H100.475ZM103.103 48.8411C102.479 48.8411 101.99 48.6962 101.639 48.4047C101.287 48.1122 101.102 47.6799 101.084 47.1123C101.079 46.9938 101.077 46.8208 101.077 46.5929C101.077 46.361 101.079 46.1859 101.084 46.0676C101.102 45.5118 101.291 45.0816 101.652 44.7811C102.012 44.4817 102.497 44.3325 103.103 44.3325C103.705 44.3325 104.188 44.4817 104.55 44.781C104.913 45.0815 105.104 45.5117 105.122 46.0673C105.131 46.3033 105.135 46.4784 105.135 46.5929C105.135 46.7033 105.131 46.8764 105.122 47.112C105.104 47.68 104.918 48.1123 104.563 48.4048C104.21 48.6962 103.722 48.8411 103.103 48.8411ZM103.103 48.0083C103.382 48.0083 103.599 47.9334 103.759 47.784C103.918 47.6345 104.006 47.3998 104.018 47.0776C104.027 46.8349 104.032 46.6711 104.032 46.5868C104.032 46.4944 104.027 46.3307 104.018 46.0962C104.006 45.7781 103.916 45.5446 103.752 45.3929C103.589 45.2411 103.373 45.1653 103.103 45.1653C102.828 45.1653 102.611 45.2412 102.447 45.3929C102.284 45.5444 102.196 45.7776 102.187 46.096C102.183 46.2128 102.181 46.3765 102.181 46.5868C102.181 46.7931 102.183 46.9567 102.187 47.0782C102.196 47.3961 102.282 47.6295 102.444 47.781C102.605 47.9325 102.824 48.0083 103.103 48.0083ZM107.876 47.0214C107.813 47.0214 107.758 47.0006 107.714 46.9603C107.67 46.9199 107.647 46.8693 107.647 46.812V46.4773C107.647 46.4199 107.67 46.3693 107.714 46.329C107.758 46.2886 107.813 46.2678 107.876 46.2678H109.473C109.54 46.2678 109.598 46.2883 109.642 46.329C109.686 46.3693 109.709 46.4199 109.709 46.4773V47.1223C109.709 47.4702 109.624 47.7746 109.453 48.0344C109.282 48.2946 109.038 48.4947 108.725 48.6339C108.413 48.7722 108.05 48.8411 107.636 48.8411C107.008 48.8411 106.515 48.6919 106.162 48.3921C105.808 48.0919 105.621 47.6743 105.598 47.1428C105.593 47.0242 105.591 46.835 105.591 46.5746C105.591 46.3143 105.593 46.125 105.598 46.0066C105.616 45.487 105.805 45.0761 106.166 44.7779C106.526 44.4805 107.017 44.3325 107.636 44.3325C108.055 44.3325 108.416 44.3982 108.721 44.5303C109.026 44.6624 109.258 44.8271 109.416 45.0249C109.575 45.2231 109.659 45.4204 109.669 45.6192C109.669 45.6722 109.648 45.7188 109.609 45.7553C109.568 45.7921 109.515 45.8103 109.453 45.8103H108.754C108.696 45.8103 108.647 45.7986 108.611 45.7721C108.58 45.7487 108.553 45.7143 108.53 45.6659C108.473 45.5275 108.372 45.4094 108.227 45.311C108.085 45.2144 107.889 45.1653 107.636 45.1653C107.343 45.1653 107.117 45.2359 106.956 45.3761C106.795 45.5152 106.709 45.7356 106.701 46.0413C106.697 46.158 106.694 46.3359 106.694 46.5746C106.694 46.8093 106.697 46.9872 106.701 47.1086C106.71 47.4219 106.797 47.6485 106.959 47.7918C107.123 47.9358 107.35 48.0083 107.643 48.0083C107.942 48.0083 108.179 47.9362 108.356 47.793C108.53 47.6519 108.619 47.4381 108.619 47.1467V47.0214H107.876ZM110.533 48.7802C110.471 48.7802 110.415 48.7594 110.371 48.7191C110.327 48.6787 110.304 48.6281 110.304 48.5708V44.6028C110.304 44.5412 110.327 44.4888 110.373 44.4499C110.417 44.4125 110.472 44.3934 110.533 44.3934H111.172C111.238 44.3934 111.295 44.4126 111.338 44.4515C111.38 44.4904 111.401 44.5421 111.401 44.6028V48.5708C111.401 48.6271 111.38 48.6771 111.339 48.7174C111.297 48.7592 111.239 48.7802 111.172 48.7802H110.533ZM113.22 48.5708C113.22 48.6271 113.199 48.6771 113.158 48.7174C113.116 48.7592 113.058 48.7802 112.991 48.7802H112.419C112.356 48.7802 112.301 48.7594 112.256 48.7191C112.213 48.6787 112.19 48.6281 112.19 48.5708V44.6089C112.19 44.5489 112.21 44.4968 112.252 44.4562C112.294 44.4144 112.351 44.3934 112.419 44.3934H112.938C113.047 44.3934 113.134 44.44 113.189 44.5259L114.964 47.0468V44.6089C114.964 44.5489 114.985 44.4968 115.026 44.4562C115.069 44.4144 115.126 44.3934 115.193 44.3934H115.766C115.832 44.3934 115.89 44.4139 115.934 44.4546C115.979 44.4952 116.001 44.5479 116.001 44.6089V48.5647C116.001 48.6257 115.979 48.6784 115.934 48.7191C115.89 48.7594 115.835 48.7802 115.772 48.7802H115.247C115.133 48.7802 115.044 48.7339 114.989 48.6482L113.22 46.1841V48.5708Z" fill="#191551"/>
<path d="M105.881 62.0057H75.0856C72.8738 62.0057 71.0703 60.2078 71.0703 58.0029C71.0703 55.7979 72.8738 54 75.0856 54H105.881C108.093 54 109.896 55.7979 109.896 58.0029C109.896 60.2078 108.093 62.0057 105.881 62.0057Z" fill="#C2DAEA"/>
<path d="M77.8427 56.6799H76.3455C75.5969 56.6799 74.9844 57.2905 74.9844 58.0368V59.5294C74.9844 60.2757 75.5969 60.8863 76.3455 60.8863H77.8427C78.5913 60.8863 79.2038 60.2757 79.2038 59.5294V58.0368C79.2038 57.2905 78.5913 56.6799 77.8427 56.6799ZM77.6385 59.3259C77.6385 59.6312 77.4003 59.8687 77.0941 59.8687C76.7878 59.8687 76.5497 59.6312 76.5497 59.3259V58.3082C76.5497 58.0029 76.7878 57.7655 77.0941 57.7655C77.4003 57.7655 77.6385 58.0029 77.6385 58.3082V59.3259Z" fill="white"/>
<path d="M78.3512 57.6297H75.8672V56.0014C75.8672 55.5265 76.2415 55.1533 76.7179 55.1533H77.5005C77.9769 55.1533 78.3512 55.5265 78.3512 56.0014V57.6297ZM76.1734 57.2904H78.0109V56.0014C78.0109 55.6961 77.7727 55.4586 77.4665 55.4586H76.6839C76.3776 55.4586 76.1394 55.6961 76.1394 56.0014V57.2904H76.1734Z" fill="white"/>
<path d="M95.4698 73.4037H85.5337C83.2878 73.4037 81.4844 71.6058 81.4844 69.3669C81.4844 67.128 83.2878 65.3301 85.5337 65.3301H95.4698C97.7156 65.3301 99.5191 67.128 99.5191 69.3669C99.5191 71.6058 97.6816 73.4037 95.4698 73.4037Z" fill="#FB3D81"/>
<path d="M94.4503 68.2812H86.5898V70.4523H94.4503V68.2812Z" fill="white"/>
<path d="M116.822 32.3582C121.61 31.7656 125.01 27.4158 124.415 22.6426C123.821 17.8693 119.457 14.4803 114.669 15.0728C109.881 15.6654 106.482 20.0152 107.076 24.7884C107.671 29.5616 112.034 32.9507 116.822 32.3582Z" fill="#7F65FC"/>
<path d="M115.72 23.0165C116.912 23.0165 117.878 22.0533 117.878 20.8652C117.878 19.677 116.912 18.7139 115.72 18.7139C114.529 18.7139 113.562 19.677 113.562 20.8652C113.562 22.0533 114.529 23.0165 115.72 23.0165Z" fill="white"/>
<path d="M120.729 26.567C120.287 24.2083 118.207 22.4458 115.711 22.4458C113.241 22.4458 111.187 24.1824 110.719 26.4892C111.967 28.6146 116.985 31.2065 120.729 26.567Z" fill="white"/>
<path d="M65.822 32.3582C70.61 31.7656 74.0096 27.4158 73.4152 22.6426C72.8208 17.8693 68.4575 14.4803 63.6695 15.0728C58.8815 15.6654 55.4819 20.0152 56.0763 24.7884C56.6707 29.5616 61.034 32.9507 65.822 32.3582Z" fill="#7F65FC"/>
<path d="M64.7205 23.0165C65.9123 23.0165 66.8784 22.0533 66.8784 20.8652C66.8784 19.677 65.9123 18.7139 64.7205 18.7139C63.5287 18.7139 62.5625 19.677 62.5625 20.8652C62.5625 22.0533 63.5287 23.0165 64.7205 23.0165Z" fill="white"/>
<path d="M69.7286 26.567C69.2866 24.2083 67.2066 22.4458 64.7107 22.4458C62.2407 22.4458 60.1867 24.1824 59.7188 26.4892C60.9667 28.6146 65.9846 31.2065 69.7286 26.567Z" fill="white"/>
<mask id="mask0_955_40059" style="mask-type:alpha" maskUnits="userSpaceOnUse" x="3" y="94" width="178" height="10">
<path fill-rule="evenodd" clip-rule="evenodd" d="M3 94.561H180.89V103.521H3V94.561Z" fill="white"/>
</mask>
<g mask="url(#mask0_955_40059)">
<path fill-rule="evenodd" clip-rule="evenodd" d="M3 94.561C3.5303 99.5741 8.79888 103.521 15.282 103.521H168.606C175.093 103.521 180.358 99.5741 180.891 94.561H3Z" fill="#EFEFEF"/>
</g>
<path fill-rule="evenodd" clip-rule="evenodd" d="M68.4961 97.5503H115.397V94.5608H68.4961V97.5503Z" fill="#CCCCCC"/>
</g>
<defs>
<filter id="filter0_d_955_40059" x="0" y="0" width="183.891" height="108.521" filterUnits="userSpaceOnUse" color-interpolation-filters="sRGB">
<feFlood flood-opacity="0" result="BackgroundImageFix"/>
<feColorMatrix in="SourceAlpha" type="matrix" values="0 0 0 0 0 0 0 0 0 0 0 0 0 0 0 0 0 0 127 0" result="hardAlpha"/>
<feOffset dy="2"/>
<feGaussianBlur stdDeviation="1.5"/>
<feComposite in2="hardAlpha" operator="out"/>
<feColorMatrix type="matrix" values="0 0 0 0 0 0 0 0 0 0 0 0 0 0 0 0 0 0 0.15 0"/>
<feBlend mode="normal" in2="BackgroundImageFix" result="effect1_dropShadow_955_40059"/>
<feBlend mode="normal" in="SourceGraphic" in2="effect1_dropShadow_955_40059" result="shape"/>
</filter>
</defs>
</svg>

<svg width="184" height="109" fill="none" xmlns="http://www.w3.org/2000/svg"><g filter="url(#filter0_d_955_40059)"><path fill-rule="evenodd" clip-rule="evenodd" d="M27.422 88.59h129.223V1H27.422v87.59z" fill="#191551"/><path d="M91.91 29.709c6.266-.776 10.716-6.469 9.938-12.716-.778-6.247-6.489-10.683-12.755-9.907-6.267.775-10.716 6.468-9.938 12.715.778 6.248 6.488 10.683 12.755 9.908z" fill="#03E59F"/><path d="M90.465 17.482a2.82 2.82 0 002.824-2.816 2.82 2.82 0 00-2.824-2.815 2.82 2.82 0 00-2.824 2.815 2.82 2.82 0 002.824 2.816z" fill="#fff"/><path d="M97.03 22.13c-.578-3.088-3.3-5.394-6.567-5.394-3.233 0-5.92 2.272-6.533 5.291 1.633 2.782 8.2 6.174 13.1.102zM121.069 78H59.931C57.219 78 55 76.481 55 74.625v-36.25C55 36.52 57.219 35 59.93 35h61.139c2.712 0 4.931 1.519 4.931 3.375V74.66c0 1.856-2.219 3.341-4.931 3.341z" fill="#fff"/><path fill-rule="evenodd" clip-rule="evenodd" d="M67.62 41.327c1.522.003 2.787.783 3.365 2.001.156.33.258.683.302 1.05.033.275.038.457.019.714-.093 1.246-.796 2.335-1.901 3.11-.007.005-.007.014.001.018l.095.05c.778.406 1.407.83 1.89 1.314l.099.1a.014.014 0 00.02 0 2.26 2.26 0 01.096-.101c.479-.487 1.104-.917 1.877-1.33.287-.153.583-.298.922-.455.051-.023.114.01.114.06l.008 1.581c0 .029-.02.054-.05.064-1.192.392-2.041 1.387-2.086 2.1-.002.036-.036.064-.077.064l-1.597.006c-.047 0-.086-.031-.09-.072-.053-.693-.744-1.368-2.017-2.034a15.797 15.797 0 00-.822-.397l-.006-.003c-.468-.224-1.162-.46-2.044-1.052-1.032-.759-1.69-1.802-1.791-2.993a3.308 3.308 0 01.011-.715c.04-.367.138-.721.29-1.051.565-1.223 1.823-2.013 3.344-2.03h.028zm-2.35 7.61a7.02 7.02 0 001.371.713c.082.033.09.126.013.168-1.07.582-1.65 1.162-1.7 1.76-.003.05-.055.09-.117.09l-1.542.005c-.067 0-.121-.044-.12-.099.026-.694.373-1.328.974-1.899.276-.262.6-.506.972-.74a.14.14 0 01.15.002zm2.344-6.098c-.805.008-1.448.412-1.757 1.082a2 2 0 00-.172.63c-.022.193-.023.29-.009.459.087 1.017.813 1.883 1.954 2.396l.003.001a.015.015 0 00.012 0l.002-.001c1.136-.522 1.853-1.394 1.928-2.412.013-.17.01-.266-.013-.459a2.027 2.027 0 00-.18-.629c-.316-.667-.963-1.066-1.768-1.067z" fill="#005FF9"/><path d="M79.362 48.57a.2.2 0 01-.061.147.23.23 0 01-.168.063h-.572a.234.234 0 01-.162-.06.196.196 0 01-.067-.15v-3.96c0-.06.02-.112.062-.153a.23.23 0 01.167-.063h.539c.11 0 .199.052.26.15l1.224 2.075 1.224-2.077a.296.296 0 01.26-.148h.532c.067 0 .124.02.169.062.044.04.067.093.067.154v3.962a.193.193 0 01-.069.153.251.251 0 01-.167.056h-.572a.234.234 0 01-.162-.06.196.196 0 01-.067-.15v-2.36l-.794 1.379a.306.306 0 01-.281.169h-.28a.331.331 0 01-.287-.168l-.795-1.38v2.36zm6.195.271c-.62 0-1.105-.145-1.451-.437-.349-.293-.522-.734-.522-1.318v-2.477c0-.06.02-.112.062-.153a.23.23 0 01.167-.063h.612a.24.24 0 01.17.062c.044.04.066.093.066.154v2.477c0 .306.078.532.231.68.152.15.37.224.658.224.288 0 .506-.075.658-.223.153-.15.23-.376.23-.681v-2.477a.2.2 0 01.068-.154.243.243 0 01.169-.062h.612a.23.23 0 01.167.063c.041.04.062.093.062.153v2.477c0 .584-.172 1.025-.518 1.318-.345.292-.826.437-1.441.437zm5.83-.918c.068 0 .125.02.17.061.044.04.067.091.067.149v.438a.196.196 0 01-.067.148.243.243 0 01-.17.061h-2.894a.234.234 0 01-.162-.06.196.196 0 01-.067-.15v-3.967a.19.19 0 01.07-.153.242.242 0 01.16-.057h.625c.066 0 .123.02.165.059.043.038.064.09.064.15v3.321h2.04zm1.989.648a.2.2 0 01-.062.146.231.231 0 01-.167.063h-.626a.234.234 0 01-.162-.06.196.196 0 01-.067-.15v-3.29h-1.161a.234.234 0 01-.162-.06.202.202 0 01-.067-.155v-.456c0-.06.02-.112.061-.153a.23.23 0 01.168-.063h3.4a.24.24 0 01.169.062c.044.04.066.093.066.154v.456a.202.202 0 01-.066.155.243.243 0 01-.17.06h-1.154v3.29zm2.32.21a.234.234 0 01-.163-.062.196.196 0 01-.067-.148v-3.968a.19.19 0 01.07-.153.242.242 0 01.16-.057h.638a.24.24 0 01.166.059c.042.038.063.09.063.15v3.969a.2.2 0 01-.062.146.231.231 0 01-.167.063h-.639zm4.779-.858c.067 0 .124.02.169.061.044.04.067.091.067.149v.438a.196.196 0 01-.067.148.244.244 0 01-.169.061h-2.894a.234.234 0 01-.163-.06.196.196 0 01-.066-.15v-3.967c0-.062.023-.114.068-.153a.242.242 0 01.16-.057h.626c.066 0 .123.02.165.059.043.038.064.09.064.15v3.321h2.04zm2.628.918c-.624 0-1.113-.145-1.464-.436-.352-.293-.537-.725-.555-1.293a13.548 13.548 0 01-.007-.52c0-.231.002-.406.007-.524.018-.556.207-.986.568-1.287.36-.3.845-.448 1.451-.448.602 0 1.085.149 1.447.448.363.3.554.73.572 1.286.009.236.013.411.013.526 0 .11-.004.283-.013.519-.018.568-.204 1-.559 1.293-.353.291-.841.436-1.46.436zm0-.833c.279 0 .496-.075.656-.224.159-.15.247-.384.259-.706.009-.243.014-.407.014-.491 0-.093-.005-.256-.014-.49-.012-.319-.102-.552-.266-.704-.163-.152-.379-.228-.649-.228-.275 0-.492.076-.656.228-.163.151-.251.385-.26.703-.004.117-.006.28-.006.49 0 .207.002.37.006.492.009.318.095.551.257.703.161.151.38.227.659.227zm4.773-.987a.233.233 0 01-.162-.06.196.196 0 01-.067-.149v-.335c0-.057.023-.108.067-.148a.233.233 0 01.162-.061h1.597a.24.24 0 01.169.061c.044.04.067.09.067.148v.645c0 .348-.085.653-.256.912-.171.26-.415.46-.728.6a2.666 2.666 0 01-1.089.207c-.628 0-1.121-.15-1.474-.449-.354-.3-.541-.718-.564-1.25a15.397 15.397 0 01-.007-.567c0-.26.002-.45.007-.568.018-.52.207-.93.568-1.23.36-.297.851-.444 1.47-.444.419 0 .78.065 1.085.197.305.132.537.297.695.495.159.198.243.395.253.594 0 .053-.021.1-.06.136a.226.226 0 01-.156.055h-.699a.238.238 0 01-.143-.038.278.278 0 01-.081-.106.797.797 0 00-.303-.355c-.142-.097-.338-.146-.591-.146-.293 0-.519.07-.68.211-.161.14-.247.36-.255.665-.004.117-.007.295-.007.534 0 .234.003.412.007.534.009.313.096.54.258.683.164.144.391.216.684.216.299 0 .536-.072.713-.215.174-.141.263-.355.263-.646v-.126h-.743zm2.657 1.76a.235.235 0 01-.162-.062.196.196 0 01-.067-.148v-3.968c0-.062.023-.114.069-.153a.242.242 0 01.16-.057h.639a.24.24 0 01.166.059c.042.038.063.09.063.15v3.969a.2.2 0 01-.062.146.23.23 0 01-.167.063h-.639zm2.687-.21a.2.2 0 01-.062.146.23.23 0 01-.167.063h-.572a.238.238 0 01-.163-.06.199.199 0 01-.066-.15v-3.96c0-.06.02-.112.062-.153a.229.229 0 01.167-.063h.519c.109 0 .196.047.251.133l1.775 2.52V44.61a.21.21 0 01.062-.153.232.232 0 01.167-.063h.573c.066 0 .124.02.168.062a.2.2 0 01.067.154v3.956a.2.2 0 01-.067.154.233.233 0 01-.162.061h-.525a.29.29 0 01-.258-.132l-1.769-2.464v2.387z" fill="#191551"/><path d="M105.881 62.006H75.086c-2.212 0-4.016-1.798-4.016-4.003S72.874 54 75.086 54h30.795c2.212 0 4.015 1.798 4.015 4.003s-1.803 4.003-4.015 4.003z" fill="#C2DAEA"/><path d="M77.843 56.68h-1.498c-.748 0-1.36.61-1.36 1.357v1.492c0 .747.612 1.357 1.36 1.357h1.498c.748 0 1.36-.61 1.36-1.357v-1.492c0-.746-.612-1.357-1.36-1.357zm-.205 2.646a.537.537 0 01-.544.543.537.537 0 01-.544-.543v-1.018c0-.305.238-.542.544-.542.306 0 .544.237.544.542v1.018z" fill="#fff"/><path d="M78.351 57.63h-2.484V56c0-.474.374-.848.85-.848h.784a.84.84 0 01.85.848v1.629zm-2.178-.34h1.838v-1.289a.537.537 0 00-.544-.542h-.783a.537.537 0 00-.545.542v1.29h.034z" fill="#fff"/><path d="M95.47 73.404h-9.936a4.031 4.031 0 01-4.05-4.037 4.031 4.031 0 014.05-4.037h9.936a4.031 4.031 0 014.05 4.037c0 2.239-1.838 4.037-4.05 4.037z" fill="#FB3D81"/><path d="M94.45 68.281h-7.86v2.171h7.86v-2.17z" fill="#fff"/><path d="M116.822 32.358c4.788-.592 8.188-4.942 7.593-9.715-.594-4.774-4.958-8.163-9.746-7.57-4.788.592-8.187 4.942-7.593 9.715.595 4.774 4.958 8.163 9.746 7.57z" fill="#7F65FC"/><path d="M115.72 23.017a2.155 2.155 0 002.158-2.152 2.155 2.155 0 00-2.158-2.151 2.155 2.155 0 00-2.158 2.151c0 1.188.967 2.152 2.158 2.152z" fill="#fff"/><path d="M120.729 26.567c-.442-2.359-2.522-4.121-5.018-4.121-2.47 0-4.524 1.736-4.992 4.043 1.248 2.126 6.266 4.717 10.01.078z" fill="#fff"/><path d="M65.822 32.358c4.788-.592 8.188-4.942 7.593-9.715-.594-4.774-4.958-8.163-9.746-7.57-4.787.592-8.187 4.942-7.593 9.715.595 4.774 4.958 8.163 9.746 7.57z" fill="#7F65FC"/><path d="M64.72 23.017a2.155 2.155 0 002.158-2.152 2.155 2.155 0 00-2.157-2.151 2.155 2.155 0 00-2.159 2.151c0 1.188.967 2.152 2.159 2.152z" fill="#fff"/><path d="M69.729 26.567c-.442-2.359-2.522-4.121-5.018-4.121-2.47 0-4.524 1.736-4.992 4.043 1.248 2.126 6.266 4.717 10.01.078z" fill="#fff"/><mask id="mask0_955_40059" style="mask-type:alpha" maskUnits="userSpaceOnUse" x="3" y="94" width="178" height="10"><path fill-rule="evenodd" clip-rule="evenodd" d="M3 94.561h177.89v8.96H3v-8.96z" fill="#fff"/></mask><g mask="url(#mask0_955_40059)"><path fill-rule="evenodd" clip-rule="evenodd" d="M3 94.561c.53 5.013 5.799 8.96 12.282 8.96h153.324c6.487 0 11.752-3.947 12.285-8.96H3z" fill="#EFEFEF"/></g><path fill-rule="evenodd" clip-rule="evenodd" d="M68.496 97.55h46.901v-2.99h-46.9v2.99z" fill="#CCC"/></g><defs><filter id="filter0_d_955_40059" x="0" y="0" width="183.891" height="108.521" filterUnits="userSpaceOnUse" color-interpolation-filters="sRGB"><feFlood flood-opacity="0" result="BackgroundImageFix"/><feColorMatrix in="SourceAlpha" values="0 0 0 0 0 0 0 0 0 0 0 0 0 0 0 0 0 0 127 0" result="hardAlpha"/><feOffset dy="2"/><feGaussianBlur stdDeviation="1.5"/><feComposite in2="hardAlpha" operator="out"/><feColorMatrix values="0 0 0 0 0 0 0 0 0 0 0 0 0 0 0 0 0 0 0.15 0"/><feBlend in2="BackgroundImageFix" result="effect1_dropShadow_955_40059"/><feBlend in="SourceGraphic" in2="effect1_dropShadow_955_40059" result="shape"/></filter></defs></svg>
